assets/images/member/email.svg

<svg height="16" viewBox="0 0 16 16" width="16" xmlns="http://www.w3.org/2000/svg"><g fill="none" fill-rule="evenodd"><path d="m0 0h16v16h-16z"/><g fill-rule="nonzero" transform="translate(1 2)"><path d="m.7 0h12.6c.38661 0 .7.29848.7.66666667v10.66666663c0 .3682-.31339.6666667-.7.6666667h-12.6c-.386596 0-.7-.2984667-.7-.6666667v-10.66666663c0-.36818667.313404-.66666667.7-.66666667z" fill="#a56b3b"/><path d="m6.78849825 5.58327706-3.70603784-2.9967286c-.29641469-.23968303-.72879544-.20442301-.98246041.08011821-.23845323.26747789-.21492409.67761611.05255381.91606934.00777003.00692688.01570563.01366578.02379991.02021083l4.24000952 3.42848044c.36946323.29874872.89813039.29627448 1.26478111-.00591937l4.15131115-3.4215144c.2766082-.22798073.3160286-.63703086.0880478-.91363906-.0066428-.00805975-.0134793-.01595798-.0205033-.02368778-.25649-.28226139-.6893956-.31345783-.9837064-.07088876l-3.62188328 2.98513327c-.14666067.12087679-.35812729.12186571-.50591207.00236588z" fill="#ddb28e"/></g></g></svg>

<?xml version="1.0" encoding="UTF-8"?>
<svg width="16px" height="16px" viewBox="0 0 16 16" version="1.1" xmlns="http://www.w3.org/2000/svg" xmlns:xlink="http://www.w3.org/1999/xlink">
    <title>切图</title>
    <g id="会员" stroke="none" stroke-width="1" fill="none" fill-rule="evenodd">
        <g id="切图" transform="translate(-626.000000, -85.000000)">
            <g id="邮箱icon" transform="translate(626.000000, 85.000000)">
                <rect id="矩形" x="0" y="0" width="16" height="16"></rect>
                <g id="编组" transform="translate(1.000000, 2.000000)" fill-rule="nonzero">
                    <path d="M0.7,0 L13.3,0 C13.68661,0 14,0.29848 14,0.666666667 L14,11.3333333 C14,11.7015333 13.68661,12 13.3,12 L0.7,12 C0.313404,12 0,11.7015333 0,11.3333333 L0,0.666666667 C0,0.29848 0.313404,0 0.7,0 Z" id="形状" fill="#A56B3B"></path>
                    <path d="M6.78849825,5.58327706 L3.08246041,2.58654846 C2.78604572,2.34686543 2.35366497,2.38212545 2.1,2.66666667 C1.86154677,2.93414456 1.88507591,3.34428278 2.15255381,3.58273601 C2.16032384,3.58966289 2.16825944,3.59640179 2.17635372,3.60294684 L6.41636324,7.03142728 C6.78582647,7.330176 7.31449363,7.32770176 7.68114435,7.02550791 L11.8324555,3.60399351 C12.1090637,3.37601278 12.1484841,2.96696265 11.9205033,2.69035445 C11.9138605,2.6822947 11.907024,2.67439647 11.9,2.66666667 C11.64351,2.38440528 11.2106044,2.35320884 10.9162936,2.59577791 L7.29441032,5.58091118 C7.14774965,5.70178797 6.93628303,5.70277689 6.78849825,5.58327706 Z" id="路径" fill="#DDB28E"></path>
                </g>
            </g>
        </g>
    </g>
</svg>
